X:1873
T:Fanny Frail
O:england
C:Trad.
A:Evesham, Worcestershire
S:Dommett
B:Dommett, p. 21, 43
P:AABABAC
N:originally entered by Rich Holmes, 1996 Sept.
M:C
K:C
I:speed 400
L:1/8
P:A
E2 G2 F2 A2 | G2 cd e2 c2 | {g}f2  e2 d2 c2 | {e}dcBA  GFED |\
CEGE  F2 A2 | G2 cd e4    |    fedc   BGAB  |    d2 c2 c4   ||\
P:B
d2 G2 d2 G2 | f2 e2 dB G2 |    f2  e2 d2 c2 | {e}dcBA  GFED |\
C2 G2 F2 A2 | G2 cd e4    |    fedc   BGAB  |    d2 c2 c4   ||\
P:C
g2 | e6       g2 | e6       g2 |    c'2 g2 f2 e2 |    d6      dd |\
dddd   dddd | dddd   ddgb |    d'bgf  efdB  |    c6         ||


